X: 22145
T: Kylebrack Rambler, The
R: reel
M: 4/4
K: Dmixolydian
DA,~A,2 DA,=FA,|DA,~A,2 CA,G,A,|DA,~A,2 D3E|FGAF G2FG|
Adde dcAB|cGAc GECE|DCA,G, A,D~D2|1 FAGE DE=FE:|2 FAGE DEFG||
AFGE FD~D2|d3c AGAB|c2Gc EcGc|cded cAGA|
d2fd dA ~A2|^cA~A2 EA~A2|GE~E2 CDEG|cAGE DEFG|
AD~D2 A,D~D2|dA~A2 dcAB|c2Bd cAGE|CcBd cAGE|
FD~D2 A,D~D2|dA~A2 dcAB|c2Bd cAGE|CEGE DE=FE||

